X:91
T:Miss Shepherd's Reel
M:C|
L:1/8
Q:120
R:Reel (Key of Ador)
K:Ador
"Am"A,B,CD E2  DC | "G"B,GFG DB,G,B, | "Am"A,B,CD ECEc | "G"BAGA "Am"Bc A2 :|:"A"^gaed ^cBAF | "G"GEDC B,A,G,2 | "A"^gaed ^cBAF | "G"GA Bd "A"^cA~A2|
"A"^gaed ^cBAF | "G"GEDC B,A,G,B, | "Am"A,B,CD ECEc | "G"BAGA "Am"Bc ~A2 |]
